X: 13605
T: Fog Before Seven
R: jig
M: 6/8
K: Gmajor
D|GAG AFD|GFG ABc|de=f ecA|AGG G2D|
GAG AFD|GFG ABc|de=f dcB|AGG G2:|
d|d^cd =fdB|cBc dcB|d^cd =fdB|cBc dBc|
d^cd =fdB|cBc dcB|d^cd =fdB|AGG G2:|

